svgs/thin/ruler-triangle.svg

<svg xmlns="http://www.w3.org/2000/svg" viewBox="0 0 512 512"><!--! Font Awesome Pro 6.3.0 by @fontawesome - https://fontawesome.com License - https://fontawesome.com/license (Commercial License) Copyright 2023 Fonticons, Inc. --><path d="M124.9 248.6C127.9 247.4 131.4 248.1 133.7 250.3L261.7 378.3C263.9 380.6 264.6 384.1 263.4 387.1C262.2 390.1 259.2 392 256 392H128C123.6 392 120 388.4 120 384V256C120 252.8 121.9 249.8 124.9 248.6V248.6zM136 275.3V376H236.7L136 275.3zM.0003 448V45.25C.0003 20.26 20.26 0 45.26 0C57.26 0 68.77 4.768 77.26 13.25L498.7 434.7C507.2 443.2 512 454.7 512 466.7C512 491.7 491.7 512 466.7 512H64C28.65 512 0 483.3 0 448L.0003 448zM16 45.25V448C16 474.5 37.49 496 64 496H466.7C482.9 496 496 482.9 496 466.7C496 458.1 492.9 451.5 487.4 446.1L442.3 400.1L413.7 429.7C410.5 432.8 405.5 432.8 402.3 429.7C399.2 426.5 399.2 421.5 402.3 418.3L431 389.7L362.3 320.1L333.7 349.7C330.5 352.8 325.5 352.8 322.3 349.7C319.2 346.5 319.2 341.5 322.3 338.3L351 309.7L282.3 240.1L253.7 269.7C250.5 272.8 245.5 272.8 242.3 269.7C239.2 266.5 239.2 261.5 242.3 258.3L271 229.7L202.3 160.1L173.7 189.7C170.5 192.8 165.5 192.8 162.3 189.7C159.2 186.5 159.2 181.5 162.3 178.3L191 149.7L122.3 80.97L93.66 109.7C90.53 112.8 85.47 112.8 82.34 109.7C79.22 106.5 79.22 101.5 82.34 98.34L111 69.66L65.94 24.57C60.46 19.08 53.01 16 45.26 16C29.1 16 16 29.1 16 45.25V45.25z"/></svg>

<svg xmlns="http://www.w3.org/2000/svg" viewBox="0 0 512 512"><!--! Font Awesome Pro 6.4.0 by @fontawesome - https://fontawesome.com License - https://fontawesome.com/license (Commercial License) Copyright 2023 Fonticons, Inc. --><path d="M16 45.3V448c0 26.5 21.5 48 48 48H466.7c16.2 0 29.3-13.1 29.3-29.3c0-7.8-3.1-15.2-8.6-20.7L442.3 401l-28.7 28.7c-3.1 3.1-8.2 3.1-11.3 0s-3.1-8.2 0-11.3L431 389.7 362.3 321l-28.7 28.7c-3.1 3.1-8.2 3.1-11.3 0s-3.1-8.2 0-11.3L351 309.7 282.3 241l-28.7 28.7c-3.1 3.1-8.2 3.1-11.3 0s-3.1-8.2 0-11.3L271 229.7 202.3 161l-28.7 28.7c-3.1 3.1-8.2 3.1-11.3 0s-3.1-8.2 0-11.3L191 149.7 122.3 81 93.7 109.7c-3.1 3.1-8.2 3.1-11.3 0s-3.1-8.2 0-11.3L111 69.7 65.9 24.6C60.5 19.1 53 16 45.3 16C29.1 16 16 29.1 16 45.3zM0 448V45.3C0 20.3 20.3 0 45.3 0c12 0 23.5 4.8 32 13.3L498.7 434.7c8.5 8.5 13.3 20 13.3 32c0 25-20.3 45.3-45.3 45.3H64c-35.3 0-64-28.7-64-64zM124.9 248.6c3-1.2 6.4-.6 8.7 1.7l128 128c2.3 2.3 3 5.7 1.7 8.7s-4.2 4.9-7.4 4.9H128c-4.4 0-8-3.6-8-8V256c0-3.2 1.9-6.2 4.9-7.4zM136 275.3V376H236.7L136 275.3z"/></svg>
